icons/home-wifi-line.svg

<svg xmlns="http://www.w3.org/2000/svg" width="24" height="24" fill="none"><g clip-path="url(#a)"><g><path fill="#121212" d="M6 19H18V9.15704L12 3.70304L6 9.15704V19ZM19 21H5C4.73478 21 4.48043 20.8947 4.29289 20.7071C4.10536 20.5196 4 20.2653 4 20V11H1L11.327 1.61204C11.5111 1.44452 11.7511 1.35168 12 1.35168C12.2489 1.35168 12.4889 1.44452 12.673 1.61204L23 11H20V20C20 20.2653 19.8946 20.5196 19.7071 20.7071C19.5196 20.8947 19.2652 21 19 21ZM8 10C9.85652 10 11.637 10.7375 12.9497 12.0503C14.2625 13.363 15 15.1435 15 17H13C13 15.674 12.4732 14.4022 11.5355 13.4645C10.5979 12.5268 9.32608 12 8 12V10ZM8 14C8.79565 14 9.55871 14.3161 10.1213 14.8787C10.6839 15.4413 11 16.2044 11 17H8V14Z"/></g></g><defs><clipPath id="a"><rect width="24" height="24" fill="white"/></clipPath></defs></svg>

<svg width="24" height="24" fill="none" xmlns="http://www.w3.org/2000/svg"><g clip-path="url(#a)"><path d="M6 19h12V9.157l-6-5.454-6 5.454V19Zm13 2H5a1 1 0 0 1-1-1v-9H1l10.327-9.388a1 1 0 0 1 1.346 0L23 11h-3v9a1 1 0 0 1-1 1ZM8 10a7 7 0 0 1 7 7h-2a5 5 0 0 0-5-5v-2Zm0 4a3 3 0 0 1 3 3H8v-3Z" /></g><defs><clipPath id="a"><path fill="#fff" d="M0 0h24v24H0z"/></clipPath></defs></svg>
